X: 21193
T: Katie Scollard's
R: slide
M: 12/8
K: Amixolydian
Bcd|e2A cBA e2c d2f|e2A cBA d2a f2a|
e2A cBA e2c d2f|efe dcB A3:|
efg|a2g e2f gfe d3|a2g efg a2f b2f|
a2g e2f gfe d2f|efe dcB A3:|

